X:1
T:Peabody Schottisch
T:Peabody Schottisch
T:James E. Magruder
T:Public Domain - https://archive.org/details/peabodyinstitutelibrarylocalhistoryresourcecenter
T:Public Domain - https://archive.org/details/peabodyinstitutelibrarylocalhistoryresourcecenter
T:Public Domain - https://archive.org/details/peabodyinstitutelibrarylocalhistoryresourcecenter
C:James E. Magruder
Z:Public Domain - https://archive.org/details/peabodyinstitutelibrarylocalhistoryresourcecenter
%%score { 1 | 2 }
L:1/8
M:2/4
K:Bb
V:1 treble nm="Piano" snm="Pno."
V:2 bass 
V:1
 [Bdf]b [cea]e | g{/g}(f/=e/ f2) | eg Ac |{/c} (B/A/B/c/) d2 | [Bdf]b [cea]e | g{/g}(f/=e/ f2) | %6
 eg Ac | B{/c}(B/A/ B) :|[K:F]{/d} (c/=B/) | c[ca][Bg][Af] | [Af][Ge] [Ge]{/d}(c/=B/) | %11
 c[db][ca][Bg] | [Bg][Af] [Af]{/d}(c/=B/) | c[ca][Bg][Af] | [Af][Ge] [Gd]{/d}(c/=B/) | %15
 c[db][ca][Bg] | [Af]2 z2 ||[K:Bb] [Bdf]b [cea]e | g{/g}(f/=e/ f2) | eg Ac |{/c} (B/A/B/c/) d2 | %21
 [Bdf]b [cea]e | g{/g}(f/=e/ f2) | eg Ac | B{/c}(B/A/ B) |][K:Eb] (3(B/c/B/) | %26
 (GB)!wedge!e!wedge!e |{/c'} (b/=a/b/c'/) b z | (GB)!wedge!e!wedge!e | (a/g/f/e/) (d/c/)B | %30
 (GB)!wedge!e!wedge!e |{/c'} (b/=a/b/c'/) b2 | (=a/b/c'/b/) (_a/g/c/d/) | e[Bg] [Ge] |: z | %35
 [Ff]/[Ff]/[Ff] [Gg][=A=a] | [Bb][cc'][dd'][Bb] | (3(c'/d'/c'/)e' g=a |{/c'} (b/=a/b/d'/) f z | %39
 [Ff]/[Ff]/[Ff] [Gg][=A=a] | [Bb][cc'][dd'][Bb] | (3(c'/d'/c'/)e' g=a | b2 [Bdb] :| (3(B/c/B/) | %44
 (GB)!wedge!e!wedge!e |{/c'} (b/=a/b/c'/) b z | (GB)!wedge!e!wedge!e | (a/g/f/e/) (d/c/)B | %48
 (GB)!wedge!e!wedge!e |{/c'} (b/=a/b/c'/) b2 | (=a/b/c'/b/) (_a/f/c/d/) | e[Bg] [Ge] z |] %52
[K:Bb] [Bdf]b [cea]e | g{/g}(f/=e/ f2) | eg Ac |{/c} (B/A/B/c/) d2 | [Bdf]b [cea]e | %57
 g{/g}(f/=e/ f2) | eg Ac | B{/c}(B/A/) B |][K:F]{/d} c/=B/ | c[ca][Bg][Af] | %62
 [Af][Ge] [Ge]{/d}c/=B/ | c[db][ca][Bg] | [Bg][Af] [Af]{/d}(c/=B/) | c[ca][Bg][Af] | %66
 [Af][Ge] [Gd]{/d}(c/=B/) | d[db][ca][Bg] | [Af]2 z2 ||[K:Bb] [Bdf]b [cea]e | g{/g}(f/=e/ f2) | %71
 eg Ac |{/c} (B/A/B/c/) d2 | [Bdf]b [cea]e | g{/g}(f/=e/ f2) | eg Ac | B{/c}(B/A/ B) z!fine! |] %77
V:2
 [B,,,B,,][F,B,D] [F,,F,][F,A,C] | [B,,,B,,][F,B,D][F,B,D][F,B,D] | [F,,F,][F,A,E][F,A,E][F,A,E] | %3
 [B,,B,][F,B,D] [B,,B,][F,A,C] | [B,,,B,,][F,B,D] [F,,F,][F,A,C] | [B,,,B,,][F,B,D][F,B,D][F,B,D] | %6
 [F,,F,][F,A,E][F,A,E][F,A,E] | [B,,B,][F,B,D] [B,,B,] :|[K:F] z | [F,,F,][A,CF][A,CF][A,CF] | %10
 [C,,C,][G,CE][G,CE] z | [C,,C,][G,CE][G,CE][G,CE] | [F,,F,][A,CF][A,CF] z | %13
 [F,,F,][A,CF][A,CF][A,CF] | [C,,C,][G,CE][G,CE] z | [C,,C,][G,CE][G,CE][G,CE] | %16
 [F,F][_E,_E][D,D][C,C] ||[K:Bb] [B,,B,][F,B,D] [F,,F,][F,A,C] | [B,,,B,,][F,B,D][F,B,D][F,B,D] | %19
 [F,,F,][F,A,E][F,A,E][F,A,E] | [B,,B,][F,B,D] [B,,B,][F,B,D] | [B,,,B,,][F,B,D] [F,,F,][F,A,C] | %22
 [B,,,B,,][F,B,D][F,B,D][F,B,D] | [F,,F,][F,A,E][F,A,E][F,A,E] | [B,D][B,,F,B,] [B,,F,B,] |] %25
[K:Eb] z | [E,,E,][B,EG][B,EG][B,EG] | [E,,E,][B,EG][B,EG][B,EG] | [E,,E,][B,EG][B,EG][B,EG] | %29
 [B,,B,][B,FA] [B,,B,][B,FA] | [E,,E,][B,EG][B,EG][B,EG] | [E,,E,][B,EG][B,EG][B,EG] | %32
 [B,,B,][B,FA] [B,,B,][B,FA] | [EG][E,E] [E,,E,] |: z | [F,,F,][F,,F,] [G,,G,][=A,,=A,] | %36
 [B,,B,][C,C][D,D][B,,B,] | [F,,F,][F,CE][F,CE][F,CE] | [B,,B,][F,B,D][F,B,D][F,B,D] | %39
 [F,,F,][F,,F,] [G,,G,][=A,,=A,] | [B,,B,][C,C][D,D][B,,B,] | [F,,F,][F,CE][F,CE][F,CE] | %42
 [B,D]2 [B,,F,B,] :| z | [E,,E,][B,EG][B,EG][B,EG] | [E,,E,][B,EG][B,EG][B,EG] | %46
 [E,,E,][B,EG][B,EG][B,EG] | [B,,B,][B,FA] [B,,B,][B,FA] | [E,,E,][B,EG][B,EG][B,EG] | %49
 [E,,E,][B,EG][B,EG][B,EG] | [B,,B,][B,FA] [B,,B,][B,FA] | [EG][E,E] [E,,E,] z |] %52
[K:Bb] [B,,,B,,][F,B,D] [F,,F,][F,A,C] | [B,,,B,,][F,B,D][F,B,D][F,B,D] | %54
 [F,,F,][F,A,E][F,A,E][F,A,E] | [B,,B,][F,B,D] [B,,B,][F,B,D] | [B,,,B,,][F,B,D] [F,,F,][F,A,C] | %57
 [B,,,B,,][F,B,D][F,B,D][F,B,D] | [F,,F,][F,A,E][F,A,E][F,A,E] | [B,D][B,,F,B,] [B,,F,B,] |] %60
[K:F] z | [F,,F,][A,CF][A,CF][A,CF] | [C,,C,][G,CE][G,CE] z | [C,,C,][G,CE][G,CE][G,CE] | %64
 [F,,F,][A,CF][A,CF] z | [F,,F,][A,CF][A,CF][A,CF] | [C,,C,][G,CE][G,CE] z | %67
 [C,,C,][G,CE][G,CE][G,CE] | [F,F][_E,_E][D,D][C,C] ||[K:Bb] [B,,B,][F,B,D] [F,,F,][F,A,C] | %70
 [B,,,B,,][F,B,D][F,B,D][F,B,D] | [F,,F,][F,A,E][F,A,E][F,A,E] | [B,,B,][F,B,D] [B,,B,][F,B,D] | %73
 [B,,B,][F,B,D] [F,,F,][F,A,C] | [B,,,B,,][F,B,D][F,B,D][F,B,D] | [F,,F,][F,A,E][F,A,E][F,A,E] | %76
 [B,D][B,,F,B,] [B,,F,B,] z |] %77

